packages/katcn/src/icons/svg/read-solid.svg

<svg width="24" height="24" viewBox="0 0 24 24" fill="none" xmlns="http://www.w3.org/2000/svg">
<path d="M23 9.8851V18.9954C23 21.198 21.2 23 19 23H5C2.8 23 1 21.198 1 18.9954V9.8851C1 8.08305 1.9 6.48123 3.5 5.5802L10.6 1.37543C11.5 0.874858 12.6 0.874858 13.5 1.37543L20.6 5.5802C22.1 6.38111 23 8.08305 23 9.8851Z" fill="black"/>
<path d="M11.9788 15C11.4049 15 10.7354 14.8093 10.2572 14.5233L5.47495 11.7585C4.99672 11.4725 4.90108 10.9004 5.09237 10.4237C5.28366 10.0424 5.95317 9.85169 6.33575 10.1377L11.118 12.9025C11.5962 13.1886 12.2657 13.1886 12.7439 12.9025L17.5262 10.1377C18.0044 9.85169 18.5783 10.0424 18.8652 10.5191C19.1521 10.9958 18.9608 11.5678 18.4826 11.8538L13.7004 14.6186C13.2222 14.8093 12.5526 15 11.9788 15Z" fill="white"/>
</svg>

<svg xmlns="http://www.w3.org/2000/svg" fill="none" viewBox="0 0 24 24"><path fill="#000" d="M23 9.885v9.11C23 21.198 21.2 23 19 23H5c-2.2 0-4-1.802-4-4.005v-9.11c0-1.802.9-3.404 2.5-4.305l7.1-4.205c.9-.5 2-.5 2.9 0l7.1 4.205c1.5.801 2.4 2.503 2.4 4.305"/><path fill="#fff" d="M11.979 15c-.574 0-1.244-.19-1.722-.477L5.475 11.76c-.478-.287-.574-.859-.383-1.335.192-.382.861-.572 1.244-.286l4.782 2.765a1.65 1.65 0 0 0 1.626 0l4.782-2.765c.478-.286 1.052-.096 1.34.381.286.477.095 1.049-.383 1.335L13.7 14.619c-.478.19-1.147.381-1.721.381"/></svg>
